X:128
T:Polska efter Carl Johan Krej
T:(SvL Småland 128)
R:Polska
B:Svenska Låtar Småland
S:Carl Johan Krej
O:Ålem, Småland
Z:Till abc Jonas Brunskog
M:3/4
L:1/8
K:D
Af (e/c/)(A/c/) (d/c/)(d/e/)|(f/g/)(a/f/) ec/e/ d2:|{/e}fa (f/d/)(f/a/) (b/a/)(g/f/)|eg (e/c/)(e/g/) (a/g/)(f/e/)|
{/e}fa (f/d/)(f/a/) (b/a/)(g/f/)|eg (e/c/)(e/g/) (a/g/)(f/e/)|{/e}fa/f/ ec/e/ d2|{/e}fa/f/ ec/e/ d2|
Af (e/c/)(A/c/) (d/c/)(d/e/)|(f/g/)(a/f/) ec/e/ d2||

